X:1
T:Silver Spring, 76.76 D
T:Silver Spring, 76.76 D
T:Hubert Platt Main, 1888
T:Public Domain, Courtesy of the Cyber Hymnal™
C:Hubert Platt Main, 1888
Z:Public Domain,
Z:Courtesy of the Cyber Hymnal™
%%score ( 1 2 ) ( 3 4 )
L:1/8
Q:1/4=100
M:6/8
K:C
V:1 treble 
V:2 treble 
V:3 bass 
V:4 bass 
V:1
 [EG]>[FA][EG] [EG]2 [Gc] | [GB]3 [FA]3 | [EG]>[FA][EG] [EG]2 [DF] | [CE]3- [CE]2 z | %4
 [EG]>[FA][EG] [EG]2 [Gc] | [GB]3 [FA]3 | [EG][EA][Ec] [Fd]2 [Ec] | [Ec]3- [Ec]2 z | %8
 [Ac]>[GB][FA] (A>B)[Fc] | [Ec]3 [EG]3 | [Ec]>[DB][Ec] [Ge]2 [^Fc] | d6 | [Ee]>[Fd][Ec] c2 [Gc] | %13
 [Fc]3 [FA]3 | [EG][EA][Ec] [Fd]2 [Ec] | [Ec]6 |] %16
V:2
 x6 | x6 | x6 | x6 | x6 | x6 | x6 | x6 | x3 F2 x | x6 | x6 | G3 F3 | x3 (EF) x | x6 | x6 | x6 |] %16
V:3
 [C,C]>[C,C][C,C] [C,C]2 [E,C] | [F,C]3 [F,C]3 | [G,C]>[G,C][G,C] (B,G,)[G,,G,] | %3
 [C,G,]3- [C,G,]2 z | [C,C]>[C,C][C,C] [C,C]2 [E,C] | [F,C]3 [F,C]3 | %6
 [G,C][G,C][G,A,] [G,B,]2 [C,C] | [C,C]3- [C,C]2 z | [F,C]>[F,C][F,C] (C>B,)[F,A,] | %9
 [C,G,]3 [C,C]3 | [C,G,]>[C,G,][C,C] C2 [A,D] | [G,B,]6 | [C,C]>[C,G,][C,G,] G,2 [E,_B,] | %13
 [F,A,]3 [F,C]3 | [G,C][G,C][G,A,] [G,B,]2 [C,C] | [C,C]6 |] %16
V:4
 x6 | x6 | x3 G,,2 x | x6 | x6 | x6 | x6 | x6 | x3 F,2 x | x6 | x3 C2 x | x6 | x3 (C,D,) x | x6 | %14
 x6 | x6 |] %16

